X: 39582
T: Teelin, The
R: barndance
M: 4/4
K: Gmajor
d>c|B2 D2 G2- G>A|B2 A2 A2 (3ABc|d2 d2 ^c2 d2|e2 d2 B>dB>A|
B2 D2 G2- G>A|B2 A2 A2- A>d|e2 ^d2 e2 F2|A2 G2 G>ed>c|
B2 D2 G>FG>A|B2 A2 A>^GA>B|d2 ^cd (3ded c>d|e2 (3ded B2- B>^A|
B2 D2- D2 G>A|B2 A2 A2 (3Bcd|e2- e>^d e2 F>G|A2 G2 G2-||
G>A|B2 d2 b2- b>a|g2 B2 d2 (3efg|f2 e2 A>Bc>d|e2 d2 B2- B>A|
G>AB>d b>^ab>=a|g2 B2 d2- d>g|f2 e2 f2 F2|A2 G2 G2- G>A|
B2 d2 b>c'b>a|g2 B2 d>Bd>g|f2 e2 A>Bc>d|e2 d2 G>AB>c|
G>A (3Bcd (3bbb b>a|g2 B2 d2 (3eeg|f2 e2 f2- f>F|A2 G2 G2||

